Apricity Icons/16/panel/pragha-panel.svg

<svg xmlns="http://www.w3.org/2000/svg" width="16" height="16" version="1.1">
 <defs>
  <style id="current-color-scheme" type="text/css">
   .ColorScheme-Text { color:#dfdfdf; } .ColorScheme-Highlight { color:#4285f4; }
  </style>
 </defs>
 <path style="fill:currentColor" class="ColorScheme-Text" d="M 10.4375 1 C 10.36389 0.995275 10.248102 1.0472572 10.033203 1.1464844 C 9.7785396 1.2643495 9.2006887 1.359375 8.7480469 1.359375 C 7.1447642 1.3941133 5.8597811 1.9764198 4.8203125 3.0742188 C 3.4094237 4.5742641 2.9658621 6.4621804 3.609375 8.2148438 C 3.757943 8.6191027 3.8491272 9.0309042 3.8105469 9.1289062 C 3.7719666 9.2277835 3.5007057 9.4989948 3.2089844 9.734375 C 2.5752859 10.245387 2.1369931 11.069559 2.0273438 11.955078 C 1.9615203 12.48709 2.0055335 12.740408 2.2851562 13.373047 C 2.8856891 14.731952 4.24755 15.315244 5.6992188 14.833984 C 6.5397789 14.554853 7.3820702 13.562955 8.0546875 12.060547 C 8.6367764 10.762894 8.6627176 10.731677 9.2871094 10.498047 C 10.338761 10.104288 11.001075 9.6692191 11.660156 8.9394531 C 12.828564 7.6452998 13.262549 5.9706007 12.84375 4.3691406 C 12.655079 3.6496124 12.496512 3.4023857 11.644531 2.4863281 C 11.104745 1.9061029 10.625765 1.316803 10.580078 1.1796875 C 10.541159 1.0641849 10.511107 1.0047252 10.4375 1 z M 10.173828 2.8769531 C 10.377797 2.8535901 10.637962 3.0362853 11.003906 3.4179688 C 12.452683 4.9260642 12.303623 7.2078777 10.671875 8.5195312 C 9.9759814 9.0777934 9.8130038 9.1135066 9.3300781 8.8125 C 9.0511211 8.6383712 8.9980002 8.4788109 9 7.8417969 C 9.0029995 6.8661506 9.3827797 4.4763668 9.6777344 3.5683594 C 9.8207124 3.1283123 9.9698595 2.9003161 10.173828 2.8769531 z M 8.0292969 3 C 8.5159863 3.002 8.8916358 3.1494104 8.9941406 3.4414062 C 9.0283088 3.5371549 8.8869109 3.9879493 8.6777344 4.4433594 C 8.1418761 5.6146757 7.9706661 6.2600352 7.6464844 8.3261719 C 7.2447989 10.888635 6.8074422 11.995166 5.9277344 12.660156 C 5.3731253 13.08015 4.6899389 13.114137 4.3261719 12.744141 C 4.0114072 12.424146 3.9220193 12.02351 4.0683594 11.603516 C 4.1843648 11.270188 4.6294033 11.216796 5.4746094 11.091797 C 6.0626368 11.005134 6.4765625 10.597778 6.4765625 10.064453 C 6.4765625 9.7286248 6.3415369 9.5380138 5.8847656 9.0546875 C 5.1781493 8.3071983 4.5345002 7.5911171 4.53125 6.6855469 C 4.5260832 5.2693174 5.2218614 4.0645481 6.40625 3.4316406 C 6.9477752 3.1422281 7.5426075 2.9980001 8.0292969 3 z"/>
</svg>

<svg xmlns="http://www.w3.org/2000/svg" width="16" height="16"><defs><style id="current-color-scheme" type="text/css"></style></defs><path d="M10.438 1c-.074-.005-.19.047-.405.146-.254.118-.832.213-1.285.213-1.603.035-2.888.617-3.928 1.715-1.41 1.5-1.854 3.388-1.21 5.14.148.405.24.817.2.915-.038.099-.31.37-.601.605-.634.511-1.072 1.336-1.182 2.221-.065.532-.021.785.258 1.418.6 1.359 1.963 1.942 3.414 1.461.84-.28 1.683-1.271 2.356-2.773.582-1.298.608-1.33 1.232-1.563 1.052-.394 1.714-.829 2.373-1.559 1.169-1.294 1.603-2.968 1.184-4.57-.189-.72-.347-.967-1.2-1.883-.54-.58-1.018-1.17-1.064-1.306-.039-.116-.069-.175-.143-.18zm-.264 1.877c.204-.023.464.16.83.541 1.449 1.508 1.3 3.79-.332 5.102-.696.558-.859.594-1.342.293-.279-.175-.332-.334-.33-.971.003-.976.383-3.366.678-4.274.143-.44.292-.668.496-.691zM8.029 3c.487.002.863.15.965.441.034.096-.107.547-.316 1.002-.536 1.172-.707 1.817-1.032 3.883-.401 2.563-.839 3.67-1.718 4.334-.555.42-1.238.454-1.602.084a1.055 1.055 0 0 1-.258-1.14c.116-.334.561-.387 1.407-.512.588-.087 1.002-.494 1.002-1.028 0-.335-.135-.526-.592-1.01-.707-.747-1.35-1.463-1.354-2.368-.005-1.417.69-2.621 1.875-3.254.542-.29 1.137-.434 1.623-.432z" fill="currentColor" color="#dfdfdf"/></svg>
